X:1
T:Marion's Ticket
C:Jack Campin 2007
M:2/4
Q:1/4=90
K:Hp
A2A>A B2A2 |e2e>f g4|a2e2  a2e2 |a2e>d B2G2|
A2A>A B2A2 |e2e>f g4|a2e>d B2ed |B2A2  A4 :|
a2e>g a2e>g|a2e>f g4|a2e>f g2e>d|e2d>B B2G2|
A2A>A B2A2 |e2e>f g4|a2e>d B2ed |B2A2  A4 :|
